icons/1_Primary/Short.io.svg

<svg xmlns="http://www.w3.org/2000/svg" width="1024" height="1024" fill="none">
   <g clip-path="url(#a)">
      <path fill="#98DC9A" d="M512 1024c282.77 0 512-229.23 512-512S794.77 0 512 0 0 229.23 0 512s229.23 512 512 512Z"/>
      <path fill="#fff" d="M281 524.24a9.546 9.546 0 0 1-5.13 8.73c-2.57 2.06-6.67 2.57-11.81 2.57-6.67 0-11.3-1.54-15.4-4.11a15.393 15.393 0 0 1-5.66-11.3l-30.8-1c0 7.7 2 14.89 6.67 20.53 4.62 6.68 10.27 11.29 18.48 15.4l13.34 3.59h-61.6V439h61.6a53.64 53.64 0 0 0-12.83 4.1 39.537 39.537 0 0 0-16.43 13.35 32.332 32.332 0 0 0-6.67 19c0 7.7 1.54 13.86 5.13 19a26.73 26.73 0 0 0 12.32 10.27c5.13 2.57 11.81 4.62 20.53 6.16a307.593 307.593 0 0 1 25.67 7.7 9.364 9.364 0 0 1 2.06 5.65l.53.01Zm121.65-12.84v47.23h-29.78v-46.2a25.687 25.687 0 0 0-3.08-14.38c-2.57-3.6-6.16-5.13-11.3-5.13-5.14 0-9.24 1.54-11.81 5.13-3.08 3.59-4.1 8.22-4.1 14.89v46.2h-67.25a51.226 51.226 0 0 0 13.35-4.62 41.123 41.123 0 0 0 17.45-14.37 34.948 34.948 0 0 0 6.67-20.54 30.78 30.78 0 0 0-5.13-18 30.3 30.3 0 0 0-12.83-10.27 103.245 103.245 0 0 0-20.53-5.65l-16.94-4.1-8.22-3.08a8.23 8.23 0 0 1-2.57-5.65c0-3.59 1.54-6.16 4.62-8.21 2.57-2.06 6.17-2.57 10.27-2.57 5.65 0 9.76 1 12.84 3.59s4.62 6.17 5.13 10.27h30.8a33.162 33.162 0 0 0-6.67-19.51 41.05 41.05 0 0 0-16.94-13.86l-12.84-4.1h68.8v41.07c3.08-3.59 6.16-6.16 10.26-7.7a35.864 35.864 0 0 1 14.38-2.57c10.27 0 18.48 3.08 25.67 9.75 6.16 6.16 10.27 16.94 10.27 32.34l-.52.04Zm100.62-20.53A41.005 41.005 0 0 0 486.84 475c-7.18-4.11-15.91-5.65-25.67-5.65-9.76 0-18.48 1.54-25.67 5.13a39.603 39.603 0 0 0-16.43 16.43 47.805 47.805 0 0 0-6.16 23.62 46.901 46.901 0 0 0 6.16 24.13A41.062 41.062 0 0 0 435.5 554c7.19 4.11 15.92 5.65 25.67 5.65 9.75 0 18.49-1.54 25.67-5.13a39.567 39.567 0 0 0 16.43-15.92 46.206 46.206 0 0 0 6.16-24.13c0-9.25-2.06-16.94-6.16-23.62v.02Zm-28.75 39.53a15.415 15.415 0 0 1-13.35 5.6c-5.65 0-10.26-2.06-13.34-5.65a25.166 25.166 0 0 1-5.13-15.4c0-7.19 1.54-12.32 5.13-16.43a15.4 15.4 0 0 1 13.34-5.14c5.13 0 10.27 2.06 13.35 5.65 3.08 4.11 4.62 9.24 4.62 15.92S477.6 526.8 474 530.4h.52Zm86.24-57a25.655 25.655 0 0 0-10.26 10.27v-13.85h-29.27v88.3H551v-42.61c0-12.84 6.16-19.51 18-19.51h11.3v-25.67h-4.62a30.827 30.827 0 0 0-15.4 3.08l.48-.01Zm58.53-28.24h-29.78v87.28c0 8.73 2.57 15.4 6.68 19.51 5.13 5.13 11.29 6.67 20 6.67h22.07v-24.11h-10.75a8.68 8.68 0 0 1-6.16-2.06c-1.54-1-2.06-3.08-2.06-6.16V495h19v-24.67h-19v-25.17Zm46.2 81.12a17.562 17.562 0 0 0-16.94 16.94 15.921 15.921 0 0 0 5.13 12.32 16.256 16.256 0 0 0 11.81 4.62c5.13 0 9.24-1.54 12.32-5.13a16.734 16.734 0 0 0 5.14-11.81c0-5.13-2.06-8.73-5.14-12.33-3.08-3.08-7.187-4.62-12.32-4.62v.01Zm46.2-94.47c-5.13 0-8.73 1.54-11.81 5.13a14.992 14.992 0 0 0-5.13 11.295 15 15 0 0 0 5.13 11.295 16.715 16.715 0 0 0 11.81 5.14 15.815 15.815 0 0 0 6.451-1.315 15.81 15.81 0 0 0 5.359-3.825 15.56 15.56 0 0 0 5.138-11.55 15.554 15.554 0 0 0-5.138-11.55 16.266 16.266 0 0 0-11.81-4.62Zm14.38 38.51h-28.75v88.3h29.26v-88.3h-.51Zm102.68 20.53A41.071 41.071 0 0 0 811.8 475c-7.18-4.11-15.4-5.65-25.67-5.65-9.24 0-18 1.54-25.15 5.13A39.539 39.539 0 0 0 744 490.86a46.148 46.148 0 0 0-5.6 23.14 52.235 52.235 0 0 0 5.6 24.1 40.996 40.996 0 0 0 17 15.4c7.18 4.11 15.4 5.65 25.67 5.65 9.75 0 18-1.54 25.67-5.13a39.501 39.501 0 0 0 16.42-15.91 47.787 47.787 0 0 0 6.15-24.11c0-9.24-2.06-16.94-6.17-23.61l.01.46Zm-29.26 39.55a15.415 15.415 0 0 1-13.35 5.6c-5.13 0-10.26-2.06-12.83-5.65-3.59-4.1-5.13-9.24-5.13-15.4 0-7.19 1.54-12.32 5.13-16.43a15.403 15.403 0 0 1 5.734-4.371 15.402 15.402 0 0 1 7.096-1.279c6.17 0 10.27 2.06 13.35 5.65a25.647 25.647 0 0 1 5.13 15.92c0 6.67-1.54 11.81-5.13 15.4v.56Z"/>
   </g>
   <defs>
      <clipPath id="a">
         <path fill="#fff" d="M0 0h1024v1024H0z"/>
      </clipPath>
   </defs>
</svg>

<svg width="1024" height="1024" viewBox="0 0 1024 1024" fill="none" xmlns="http://www.w3.org/2000/svg">
<g clip-path="url(#clip0_2_3462)">
<path d="M512 1024C794.77 1024 1024 794.77 1024 512C1024 229.23 794.77 0 512 0C229.23 0 0 229.23 0 512C0 794.77 229.23 1024 512 1024Z" fill="#98DC9A"/>
<path d="M281 524.24C281.05 526.03 280.596 527.798 279.689 529.342C278.781 530.886 277.458 532.143 275.87 532.97C273.3 535.03 269.2 535.54 264.06 535.54C257.39 535.54 252.76 534 248.66 531.43C246.97 530.054 245.592 528.336 244.616 526.388C243.641 524.44 243.09 522.307 243 520.13L212.2 519.13C212.2 526.83 214.2 534.02 218.87 539.66C223.49 546.34 229.14 550.95 237.35 555.06L250.69 558.65H189.09V439H250.69C246.258 439.822 241.947 441.2 237.86 443.1C231.272 445.974 225.591 450.589 221.43 456.45C217.241 461.912 214.904 468.568 214.76 475.45C214.76 483.15 216.3 489.31 219.89 494.45C222.848 499.054 227.149 502.638 232.21 504.72C237.34 507.29 244.02 509.34 252.74 510.88C261.407 513.073 269.963 515.64 278.41 518.58C279.699 520.185 280.423 522.171 280.47 524.23L281 524.24ZM402.65 511.4V558.63H372.87V512.43C373.267 507.439 372.196 502.441 369.79 498.05C367.22 494.45 363.63 492.92 358.49 492.92C353.35 492.92 349.25 494.46 346.68 498.05C343.6 501.64 342.58 506.27 342.58 512.94V559.14H275.33C279.972 558.224 284.465 556.669 288.68 554.52C295.725 551.454 301.77 546.476 306.13 540.15C310.466 534.179 312.801 526.989 312.8 519.61C313 513.223 311.207 506.932 307.67 501.61C304.421 497.07 299.981 493.516 294.84 491.34C288.21 488.754 281.33 486.861 274.31 485.69L257.37 481.59L249.15 478.51C247.589 477.034 246.666 475.007 246.58 472.86C246.58 469.27 248.12 466.7 251.2 464.65C253.77 462.59 257.37 462.08 261.47 462.08C267.12 462.08 271.23 463.08 274.31 465.67C277.39 468.26 278.93 471.84 279.44 475.94H310.24C310.146 468.893 307.81 462.059 303.57 456.43C299.282 450.362 293.427 445.572 286.63 442.57L273.79 438.47H342.59V479.54C345.67 475.95 348.75 473.38 352.85 471.84C357.416 470.006 362.311 469.131 367.23 469.27C377.5 469.27 385.71 472.35 392.9 479.02C399.06 485.18 403.17 495.96 403.17 511.36L402.65 511.4ZM503.27 490.87C499.407 484.13 493.709 478.627 486.84 475C479.66 470.89 470.93 469.35 461.17 469.35C451.41 469.35 442.69 470.89 435.5 474.48C428.504 478.191 422.78 483.914 419.07 490.91C415.007 498.118 412.885 506.256 412.91 514.53C412.751 522.981 414.88 531.319 419.07 538.66C423.013 545.202 428.703 550.514 435.5 554C442.69 558.11 451.42 559.65 461.17 559.65C470.92 559.65 479.66 558.11 486.84 554.52C493.765 550.947 499.48 545.409 503.27 538.6C507.493 531.272 509.624 522.925 509.43 514.47C509.43 505.22 507.37 497.53 503.27 490.85V490.87ZM474.52 530.4C472.923 532.355 470.871 533.889 468.543 534.865C466.216 535.842 463.684 536.231 461.17 536C455.52 536 450.91 533.94 447.83 530.35C444.466 525.924 442.662 520.509 442.7 514.95C442.7 507.76 444.24 502.63 447.83 498.52C449.472 496.649 451.544 495.203 453.867 494.308C456.191 493.413 458.696 493.094 461.17 493.38C466.3 493.38 471.44 495.44 474.52 499.03C477.6 503.14 479.14 508.27 479.14 514.95C479.14 521.63 477.6 526.8 474 530.4H474.52ZM560.76 473.4C556.423 475.764 552.86 479.33 550.5 483.67V469.82H521.23V558.12H551V515.51C551 502.67 557.16 496 569 496H580.3V470.33H575.68C570.367 470.01 565.061 471.071 560.28 473.41L560.76 473.4ZM619.29 445.16H589.51V532.44C589.51 541.17 592.08 547.84 596.19 551.95C601.32 557.08 607.48 558.62 616.19 558.62H638.26V534.51H627.51C625.267 534.646 623.059 533.908 621.35 532.45C619.81 531.45 619.29 529.37 619.29 526.29V495H638.29V470.33H619.29V445.16ZM665.49 526.28C661.046 526.434 656.827 528.269 653.682 531.413C650.538 534.557 648.704 538.776 648.55 543.22C648.463 545.522 648.877 547.816 649.763 549.943C650.648 552.07 651.985 553.98 653.68 555.54C655.238 557.062 657.087 558.255 659.116 559.049C661.145 559.842 663.312 560.22 665.49 560.16C670.62 560.16 674.73 558.62 677.81 555.03C679.405 553.499 680.68 551.667 681.563 549.64C682.445 547.613 682.916 545.431 682.95 543.22C682.95 538.09 680.89 534.49 677.81 530.89C674.73 527.81 670.623 526.27 665.49 526.27V526.28ZM711.69 431.81C706.56 431.81 702.96 433.35 699.88 436.94C698.269 438.348 696.977 440.084 696.093 442.032C695.208 443.98 694.75 446.095 694.75 448.235C694.75 450.375 695.208 452.489 696.093 454.438C696.977 456.386 698.269 458.122 699.88 459.53C701.41 461.125 703.242 462.401 705.27 463.284C707.297 464.166 709.479 464.637 711.69 464.67C713.909 464.689 716.107 464.241 718.141 463.355C720.176 462.47 722.002 461.167 723.5 459.53C725.117 458.072 726.411 456.29 727.296 454.301C728.181 452.311 728.638 450.158 728.638 447.98C728.638 445.802 728.181 443.649 727.296 441.659C726.411 439.67 725.117 437.888 723.5 436.43C721.941 434.908 720.093 433.715 718.064 432.921C716.035 432.128 713.867 431.75 711.69 431.81ZM726.07 470.32H697.32V558.62H726.58V470.32H726.07ZM828.75 490.85C824.741 484.047 818.856 478.544 811.8 475C804.62 470.89 796.4 469.35 786.13 469.35C776.89 469.35 768.13 470.89 760.98 474.48C753.785 478.085 747.861 483.799 744 490.86C740.141 497.951 738.211 505.93 738.4 514C738.31 522.366 740.23 530.631 744 538.1C748.086 544.746 753.983 550.089 761 553.5C768.18 557.61 776.4 559.15 786.67 559.15C796.42 559.15 804.67 557.61 812.34 554.02C819.262 550.451 824.975 544.916 828.76 538.11C832.903 530.757 835.025 522.439 834.91 514C834.91 504.76 832.85 497.06 828.74 490.39L828.75 490.85ZM799.49 530.4C797.893 532.355 795.841 533.889 793.513 534.865C791.186 535.842 788.654 536.231 786.14 536C781.01 536 775.88 533.94 773.31 530.35C769.72 526.25 768.18 521.11 768.18 514.95C768.18 507.76 769.72 502.63 773.31 498.52C774.848 496.63 776.814 495.132 779.044 494.149C781.275 493.167 783.707 492.729 786.14 492.87C792.31 492.87 796.41 494.93 799.49 498.52C802.931 503.104 804.737 508.709 804.62 514.44C804.62 521.11 803.08 526.25 799.49 529.84V530.4Z" fill="white"/>
</g>
<defs>
<clipPath id="clip0_2_3462">
<rect width="1024" height="1024" fill="white"/>
</clipPath>
</defs>
</svg>
